www/static/icons/elitepvpers.svg

<svg width="50" height="50" viewBox="0 0 50 50" fill="none" xmlns="http://www.w3.org/2000/svg">
<rect width="50" height="50" rx="6" fill="#25293E"/>
<path fill-rule="evenodd" clip-rule="evenodd" d="M19.4427 21.1727C19.3734 20.8957 19.0124 20.9334 19.0124 20.9334L16.2064 20.9442H13.1019C12.5432 20.9442 11.3799 20.5172 11.0204 20.0585C10.6486 19.5837 10.2363 19.0429 10.0027 18.4991H18.5055C18.756 18.4991 18.9305 18.6061 18.9305 18.6061C18.678 17.4039 18.4126 16.0808 18.2987 15.5374C18.2661 15.3846 18.0998 15.3121 17.8518 15.3121H9.80955C8.7313 15.3121 6.71193 14.5248 7.06907 12.9394C6.34575 13.6124 6.04484 14.4916 6.005 15.4164C5.96051 16.4484 6.21685 17.548 6.62361 18.4592C9.00508 23.7935 13.8494 24.5473 13.8577 24.5704C13.6301 24.2865 13.5756 24.0945 13.5155 23.7928C13.3651 23.035 16.1488 23.136 16.7722 23.136H19.5351C19.6702 23.1368 19.8016 23.1798 19.911 23.2589C19.7335 22.4113 19.6211 22.0034 19.4427 21.1727ZM22.3685 34.9382C22.3685 34.7614 21.8234 33.247 21.6238 32.672C21.4757 32.632 21.311 32.544 21.1114 32.5819C21.0316 32.5971 20.2541 32.7322 20.0453 32.7794C19.8938 32.8364 19.8112 33.0492 19.7162 33.1181C19.7191 33.7137 19.8839 35.2315 19.933 35.4448C20.1243 35.5556 20.3945 35.7094 20.8038 35.7259C20.8038 35.7259 20.9806 36.0454 21.4584 36.4546C21.4584 36.4546 21.7799 35.8634 21.7186 35.5064C21.9477 35.3259 22.2438 35.2358 22.3685 34.9381V34.9382ZM15.8163 14.9144L16.3468 14.5796C16.8084 14.4911 17.0344 14.432 17.0344 14.432C17.2996 14.4911 17.5943 14.5501 17.5943 14.5501C17.6785 14.5254 17.7558 14.4816 17.8203 14.4221C17.7613 14.0283 17.6532 13.5951 17.6532 13.5951L16.8183 13.2996L16.0718 13.4966L15.4851 13.9936L15.6447 14.8674L15.8163 14.9144Z" fill="#E2BA5A"/>
<path fill-rule="evenodd" clip-rule="evenodd" d="M18.4162 18.4006C17.8833 15.9295 17.4999 14.1501 17.4759 14.0301C17.4678 13.9882 17.4415 13.955 17.4014 13.9296L17.4372 13.92L16.0742 12L15.7427 14.3754L15.7442 14.375C15.7227 14.4167 15.7167 14.4648 15.7273 14.5106C15.7832 14.7427 16.1218 16.2706 16.5922 18.4002H18.4059C18.4098 18.4002 18.4128 18.4004 18.4162 18.4006ZM21.938 34.78C21.8797 34.4643 20.629 28.659 19.4665 23.2685C19.3356 23.1924 19.0998 23.1014 18.7216 23.1014C18.2001 23.1014 17.8198 23.2715 17.7001 23.4175C18.8535 28.6432 20.1172 34.3597 20.3037 35.1076C20.4341 35.6318 22.0465 35.3696 21.938 34.78ZM18.4856 18.7223C18.3699 18.6427 18.1237 18.523 17.6897 18.523C17.1908 18.523 16.8208 18.6789 16.6851 18.8202C16.968 20.1013 17.2921 21.5705 17.6277 23.0914H19.4279C19.0953 21.5497 18.7712 20.0466 18.4856 18.7223Z" fill="#E2BA5A"/>
<path fill-rule="evenodd" clip-rule="evenodd" d="M43.9951 15.4164C43.9552 14.4916 43.6543 13.6124 42.9311 12.9393C43.2882 14.5247 41.2689 15.3121 40.1906 15.3121H32.1484C31.9004 15.3121 31.7342 15.3845 31.7015 15.5373C31.5874 16.0807 31.3219 17.4038 31.0696 18.6061C31.0696 18.6061 31.2441 18.4991 31.4946 18.4991H39.9973C39.7638 19.0428 39.3516 19.5836 38.9794 20.0585C38.6199 20.5171 37.4566 20.9441 36.8978 20.9441H33.7936L30.9876 20.9334C30.9876 20.9334 30.6264 20.896 30.5572 21.1727C30.3788 22.0033 30.2664 22.4112 30.0887 23.2586C30.1981 23.1794 30.3296 23.1365 30.4646 23.1357H33.2276C33.851 23.1357 36.6347 23.0344 36.4842 23.7925C36.4244 24.094 36.3702 24.2863 36.142 24.5701C36.1502 24.547 40.9947 23.7932 43.3761 18.4589C43.7832 17.548 44.0395 16.4484 43.9951 15.4164ZM28.7647 32.5963C28.5652 32.5583 28.3114 32.634 28.1633 32.6741C27.9887 33.1769 27.3899 34.7576 27.3899 34.9382C27.5146 35.2359 27.8106 35.326 28.0398 35.5065C27.9784 35.8634 28.3 36.4547 28.3 36.4547C28.7779 36.0454 28.9546 35.7259 28.9546 35.7259C29.3639 35.7096 29.6341 35.5556 29.8254 35.4449C29.8743 35.2315 30.1287 33.7507 30.1317 33.1552C30.0367 33.0863 29.8307 32.8344 29.6792 32.777C29.4706 32.7296 28.8446 32.6114 28.7647 32.5963ZM32.8411 14.5259C33.3017 14.6201 33.5331 14.6515 33.5331 14.6515C33.756 14.8073 34.0057 14.9743 34.0057 14.9743C34.0929 14.9833 34.181 14.9722 34.2632 14.9417C34.3582 14.555 34.4227 14.1131 34.4227 14.1131L33.9168 13.5892L32.8524 13.4405L32.2657 13.6551L32.0824 14.5244L32.2236 14.6332L32.8411 14.5259Z" fill="#E2BA5A"/>
<path fill-rule="evenodd" clip-rule="evenodd" d="M31.1645 23.1014C30.8031 23.1014 30.572 23.1844 30.438 23.2581C29.2749 28.6516 28.0226 34.4641 27.9643 34.7796C27.8553 35.3694 29.4678 35.6314 29.5985 35.1073C29.7848 34.3602 31.0461 28.6549 32.1985 23.4336C32.0949 23.2847 31.7055 23.1014 31.1645 23.1014ZM32.1963 18.523C31.7845 18.523 31.5419 18.6307 31.4193 18.7097C31.1331 20.0371 30.8082 21.5445 30.4741 23.0914H32.2742C32.6083 21.5758 32.9316 20.1123 33.2138 18.8345C33.0897 18.6897 32.7117 18.523 32.1963 18.523ZM34.1997 14.3222L33.7985 12L32.5326 13.9121C32.4744 13.9391 32.4362 13.9779 32.4258 14.0301C32.4018 14.1501 32.0184 15.9292 31.4857 18.4002H33.3095C33.7799 16.2707 34.1186 14.7426 34.1745 14.5105C34.1914 14.4401 34.1663 14.371 34.112 14.3057L34.1997 14.3222Z" fill="#E2BA5A"/>
<path d="M27.233 13.0736C27.233 13.0736 27.5481 13.726 27.4293 14.2282L24.9716 24.6171L22.514 14.2282C22.3952 13.726 22.7103 13.0736 22.7103 13.0736L18.8281 13.8855C18.8281 13.8855 19.7777 14.3614 19.9552 14.9961C20.11 15.5502 22.8158 29.4538 23.6153 32.9821C23.7318 33.4962 23.2967 34.1073 23.2967 34.1073L24.9715 38.157L26.6462 34.1073C26.6462 34.1073 26.2111 33.4962 26.3276 32.9821C27.1274 29.4534 29.8331 15.5501 29.9884 14.9961C30.1658 14.3614 31.1154 13.8855 31.1154 13.8855L27.233 13.0736Z" fill="#E2BA5A"/>
</svg>

<svg width="50" height="50" fill="none" xmlns="http://www.w3.org/2000/svg"><rect width="50" height="50" rx="6" fill="#25293E"/><path fill-rule="evenodd" clip-rule="evenodd" d="M19.443 21.173c-.07-.277-.43-.24-.43-.24l-2.807.011h-3.104c-.559 0-1.722-.427-2.082-.886-.371-.474-.784-1.015-1.017-1.559h8.503c.25 0 .424.107.424.107-.252-1.202-.517-2.525-.631-3.069-.033-.152-.2-.225-.447-.225H9.81c-1.079 0-3.098-.787-2.74-2.373-.724.673-1.025 1.553-1.065 2.477-.044 1.032.212 2.132.619 3.043 2.381 5.335 7.225 6.088 7.234 6.111-.228-.284-.282-.476-.343-.777-.15-.758 2.634-.657 3.257-.657h2.763c.135 0 .267.044.376.123-.178-.848-.29-1.256-.468-2.086zm2.925 13.765c0-.177-.545-1.691-.744-2.266-.148-.04-.313-.128-.513-.09-.08.015-.857.15-1.066.197-.151.057-.234.27-.329.34.003.595.168 2.112.217 2.326.191.11.462.264.87.28 0 0 .178.32.655.73 0 0 .322-.592.26-.949.23-.18.526-.27.65-.568zm-6.552-20.024l.53-.334c.462-.089.688-.148.688-.148.266.06.56.118.56.118a.57.57 0 00.226-.128c-.059-.394-.167-.827-.167-.827l-.835-.295-.746.197-.587.497.16.873.171.047z" fill="#E2BA5A"/><path fill-rule="evenodd" clip-rule="evenodd" d="M18.416 18.4c-.533-2.47-.916-4.25-.94-4.37a.153.153 0 00-.075-.1l.036-.01L16.074 12l-.331 2.375h.001a.198.198 0 00-.017.136c.056.232.395 1.76.865 3.89h1.824zm3.522 16.38c-.058-.316-1.309-6.121-2.471-11.512-.131-.076-.367-.167-.745-.167-.522 0-.902.17-1.022.317 1.154 5.225 2.417 10.942 2.604 11.69.13.524 1.743.262 1.634-.328zm-3.452-16.058c-.116-.08-.362-.199-.796-.199-.5 0-.87.156-1.005.297l.943 4.271h1.8l-.942-4.369zM43.995 15.416c-.04-.924-.34-1.804-1.064-2.477.357 1.586-1.662 2.373-2.74 2.373h-8.043c-.248 0-.414.072-.447.225-.114.544-.38 1.867-.631 3.07 0 0 .174-.108.425-.108h8.502c-.233.544-.645 1.085-1.018 1.56-.36.458-1.522.885-2.081.885h-3.104l-2.806-.01s-.362-.038-.43.239c-.18.83-.292 1.238-.47 2.086.11-.08.242-.122.377-.123h2.763c.623 0 3.407-.102 3.256.657-.06.301-.114.493-.342.777.008-.023 4.853-.777 7.234-6.111.407-.911.663-2.01.62-3.043zm-15.23 17.18c-.2-.038-.454.038-.602.078-.174.503-.773 2.084-.773 2.264.125.298.42.388.65.569-.062.356.26.948.26.948.478-.41.655-.73.655-.73.409-.015.68-.17.87-.28.05-.214.304-1.694.307-2.29-.095-.069-.301-.32-.453-.378-.208-.047-.834-.166-.914-.18zm4.076-18.07c.46.094.692.126.692.126.223.155.473.322.473.322a.571.571 0 00.257-.032c.095-.387.16-.829.16-.829l-.506-.524-1.065-.149-.586.215-.184.87.142.108.617-.107z" fill="#E2BA5A"/><path fill-rule="evenodd" clip-rule="evenodd" d="M31.165 23.101c-.362 0-.593.083-.727.157a2900.164 2900.164 0 00-2.474 11.522c-.109.59 1.504.851 1.635.327.186-.747 1.447-6.452 2.6-11.673-.104-.15-.493-.333-1.034-.333zm1.031-4.578c-.411 0-.654.108-.777.187-.286 1.327-.61 2.834-.945 4.381h1.8l.94-4.257c-.124-.144-.502-.311-1.018-.311zm2.004-4.2L33.798 12l-1.265 1.912c-.059.027-.097.066-.107.118-.024.12-.408 1.9-.94 4.37h1.823c.47-2.13.81-3.657.866-3.89.016-.07-.009-.139-.063-.204l.088.016z" fill="#E2BA5A"/><path d="M27.233 13.074s.315.652.196 1.154l-2.457 10.39-2.458-10.39c-.119-.502.196-1.154.196-1.154l-3.882.812s.95.475 1.127 1.11c.155.554 2.86 14.458 3.66 17.986.117.514-.318 1.125-.318 1.125l1.674 4.05 1.675-4.05s-.435-.61-.318-1.125c.8-3.529 3.505-17.432 3.66-17.986.178-.635 1.127-1.11 1.127-1.11l-3.882-.812z" fill="#E2BA5A"/></svg>
